svg/24/logo-meta.svg

<svg width="24" height="24" viewBox="0 0 24 24" fill="currentColor" xmlns="http://www.w3.org/2000/svg"><path fill-rule="evenodd" clip-rule="evenodd" d="M2.20418 17.3075C1.70575 16.4785 1.46094 15.3908 1.46094 14.1513C1.46094 11.8974 2.07958 9.54817 3.25602 7.73403C4.29979 6.12513 5.80611 5 7.53375 5C8.53427 5 9.52893 5.29613 10.5676 6.14419C11.115 6.591 11.6799 7.17704 12.2873 7.94594C12.7808 7.27928 13.3131 6.6488 13.8858 6.14932C14.7331 5.41047 15.6471 5 16.567 5C18.1114 5 19.5825 5.89497 20.7084 7.57351C21.9405 9.41183 22.5387 11.7273 22.5387 14.1169C22.5387 15.5374 22.2587 16.5812 21.7822 17.4058C21.4511 17.9794 20.894 18.5526 20.0458 18.8292C19.7884 18.9132 19.5042 18.9698 19.1913 18.9909C19.1018 18.9969 19.0098 19 18.9155 19C17.9773 19 17.1461 18.7962 16.2269 17.9291C15.5203 17.2636 14.6943 16.0813 14.0588 15.0184L12.1684 11.8607C12.1145 11.7707 12.0609 11.6819 12.0075 11.5945L11.1803 13.0599C9.84628 15.4252 9.50837 15.964 8.84136 16.8531C7.67225 18.4099 6.67392 19 5.35968 19C3.80062 19 2.81476 18.3249 2.20418 17.3075ZM4.14513 16.0292C3.91424 15.6554 3.73759 15.0375 3.73759 14.2327C3.73759 12.2815 4.29103 10.2496 5.1948 8.88555C5.79691 7.97617 6.50959 7.36341 7.34205 7.29542C7.38637 7.29179 7.43104 7.28972 7.47605 7.28923L7.4971 7.28911C8.60831 7.28911 9.30464 7.98398 9.84632 8.55937C10.1169 8.8469 10.4933 9.32111 10.9309 9.94424L10.0347 11.3213C9.83846 11.6226 9.61412 11.9768 9.37378 12.3563C8.79969 13.2628 8.13432 14.3134 7.54324 15.1313C6.49654 16.579 5.9534 16.7263 5.35968 16.7263C4.89937 16.7263 4.44785 16.5188 4.14513 16.0292ZM14.4253 11.1146C14.039 10.4712 13.6724 9.89255 13.3216 9.37205C13.3841 9.27523 13.4463 9.18071 13.5083 9.08859C14.4927 7.62482 15.3686 6.80387 16.4571 6.80387C17.4634 6.80387 18.3782 7.46942 19.0841 8.55864C20.0787 10.0942 20.5303 12.2434 20.5303 14.1799C20.5303 15.369 20.2833 16.4267 19.3559 16.6726C19.2234 16.7077 19.077 16.7263 18.9155 16.7263C18.4061 16.7263 18.0139 16.524 17.454 15.8452C17.0186 15.3168 16.2746 14.196 14.9669 12.0176L14.4253 11.1146Z"/></svg>

<svg xmlns="http://www.w3.org/2000/svg" width="24" height="24" fill="currentColor" viewBox="0 0 24 24">
  <path fill-rule="evenodd" d="M2.204 17.308c-.498-.83-.743-1.917-.743-3.157 0-2.254.619-4.603 1.795-6.417C4.3 6.125 5.806 5 7.534 5c1 0 1.995.296 3.034 1.144.547.447 1.112 1.033 1.72 1.802.493-.667 1.025-1.297 1.598-1.797C14.733 5.41 15.647 5 16.567 5c1.544 0 3.015.895 4.141 2.574 1.233 1.838 1.83 4.153 1.83 6.543 0 1.42-.28 2.464-.756 3.289a3.105 3.105 0 0 1-1.736 1.423 3.556 3.556 0 0 1-1.13.171c-.939 0-1.77-.204-2.69-1.07-.706-.666-1.532-1.849-2.167-2.912l-1.89-3.157c-.055-.09-.108-.18-.162-.267l-.827 1.466c-1.334 2.365-1.672 2.904-2.339 3.793C7.672 18.41 6.674 19 5.36 19c-1.56 0-2.545-.675-3.156-1.692Zm1.941-1.279c-.23-.374-.407-.992-.407-1.796 0-1.952.553-3.983 1.457-5.347.602-.91 1.315-1.523 2.147-1.59a1.97 1.97 0 0 1 .134-.007h.021c1.111 0 1.808.695 2.35 1.27.27.288.646.762 1.084 1.385l-.896 1.377c-.197.302-.42.656-.661 1.035-.574.907-1.24 1.957-1.83 2.775-1.047 1.448-1.59 1.595-2.184 1.595-.46 0-.912-.207-1.215-.697Zm10.28-4.914a39.575 39.575 0 0 0-1.103-1.743c.062-.097.124-.191.186-.283.985-1.464 1.86-2.285 2.95-2.285 1.005 0 1.92.665 2.626 1.755.995 1.535 1.446 3.684 1.446 5.62 0 1.19-.247 2.248-1.174 2.494a1.715 1.715 0 0 1-.44.053c-.51 0-.902-.202-1.462-.88-.435-.53-1.18-1.65-2.487-3.828l-.542-.903Z" clip-rule="evenodd"/>
</svg>
